Sources/FrostedUI/Resources/Icons.xcassets/thumbUpFilled24.imageset/thumb-up-filled-24.svg

<svg width="24" height="24" viewBox="0 0 24 24" fill="none" xmlns="http://www.w3.org/2000/svg" data-fui-icon="true">
  <path
    fill-rule="evenodd"
    clip-rule="evenodd"
    d="M6.42149 10H3.75C2.78352 10 2 10.7835 2 11.75V19.25C2 20.2165 2.78352 21 3.75 21H17.422C19.2752 21 20.8505 19.6463 21.1293 17.8141L21.9663 12.3141C22.3116 10.0445 20.5548 8 18.2589 8H15.0049H13.8921L14.0365 7.07384L14.3327 5.17365C14.5931 3.50375 13.2963 2 11.611 2C10.9568 2 10.3546 2.36505 10.0541 2.94857L6.42149 10ZM6 19.5V11.5H3.75C3.61192 11.5 3.5 11.6119 3.5 11.75V19.25C3.5 19.3881 3.61192 19.5 3.75 19.5H6Z"
    fill="currentColor"
  />
</svg>

<svg xmlns="http://www.w3.org/2000/svg" width="24" height="24" fill="none" data-fui-icon="true" viewBox="0 0 24 24"><path fill="currentColor" fill-rule="evenodd" d="M6.421 10H3.75A1.75 1.75 0 0 0 2 11.75v7.5c0 .966.784 1.75 1.75 1.75h13.672a3.75 3.75 0 0 0 3.707-3.186l.837-5.5A3.75 3.75 0 0 0 18.26 8h-4.367l.145-.926.296-1.9A2.753 2.753 0 0 0 11.61 2c-.654 0-1.256.365-1.557.949zM6 19.5v-8H3.75a.25.25 0 0 0-.25.25v7.5c0 .138.112.25.25.25z" clip-rule="evenodd"/></svg>
